assets/img/user.svg

<!-- Generated by IcoMoon.io -->
<svg version="1.1" xmlns="http://www.w3.org/2000/svg" width="24" height="24" viewBox="0 0 24 24">
<title>user</title>
<path d="M21 21v-2c0-1.38-0.561-2.632-1.464-3.536s-2.156-1.464-3.536-1.464h-8c-1.38 0-2.632 0.561-3.536 1.464s-1.464 2.156-1.464 3.536v2c0 0.552 0.448 1 1 1s1-0.448 1-1v-2c0-0.829 0.335-1.577 0.879-2.121s1.292-0.879 2.121-0.879h8c0.829 0 1.577 0.335 2.121 0.879s0.879 1.292 0.879 2.121v2c0 0.552 0.448 1 1 1s1-0.448 1-1zM17 7c0-1.38-0.561-2.632-1.464-3.536s-2.156-1.464-3.536-1.464-2.632 0.561-3.536 1.464-1.464 2.156-1.464 3.536 0.561 2.632 1.464 3.536 2.156 1.464 3.536 1.464 2.632-0.561 3.536-1.464 1.464-2.156 1.464-3.536zM15 7c0 0.829-0.335 1.577-0.879 2.121s-1.292 0.879-2.121 0.879-1.577-0.335-2.121-0.879-0.879-1.292-0.879-2.121 0.335-1.577 0.879-2.121 1.292-0.879 2.121-0.879 1.577 0.335 2.121 0.879 0.879 1.292 0.879 2.121z"></path>
</svg>

<svg xmlns="http://www.w3.org/2000/svg" width="24" height="24"><path d="M21 21v-2c0-1.38-.561-2.632-1.464-3.536S17.38 14 16 14H8c-1.38 0-2.632.561-3.536 1.464S3 17.62 3 19v2a1 1 0 002 0v-2c0-.829.335-1.577.879-2.121S7.171 16 8 16h8c.829 0 1.577.335 2.121.879S19 18.171 19 19v2a1 1 0 002 0zM17 7c0-1.38-.561-2.632-1.464-3.536S13.38 2 12 2s-2.632.561-3.536 1.464S7 5.62 7 7s.561 2.632 1.464 3.536S10.62 12 12 12s2.632-.561 3.536-1.464S17 8.38 17 7zm-2 0c0 .829-.335 1.577-.879 2.121S12.829 10 12 10s-1.577-.335-2.121-.879S9 7.829 9 7s.335-1.577.879-2.121S11.171 4 12 4s1.577.335 2.121.879S15 6.171 15 7z"/></svg>
